;FLAVOR:Marlin
;TIME:1660
;Filament used: 0.666709m
;Layer height: 0.2
;MINX:89.24
;MINY:98.113
;MINZ:0.2
;MAXX:124.679
;MAXY:121.885
;MAXZ:24
;TARGET_MACHINE.NAME:Creality Ender-3 Pro
;Generated with Cura_SteamEngine 5.6.0
M82 ;absolute extrusion mode
; Ender 3 Custom Start G-code
G92 E0 ; Reset Extruder
G28 ; Home all axes
G1 Z5.0 F3000 ; Move Z Axis up a bit during heating to not damage bed
M104 S175 ; Start heating up the nozzle most of the way
M190 S60 ; Start heating the bed, wait until target temperature reached
M109 S200 ; Finish heating the nozzle
G1 Z2.0 F3000 ; Move Z Axis up little to prevent scratching of Heat Bed
G1 X0.1 Y20 Z0.3 F5000.0 ; Move to start position
G1 X0.1 Y200.0 Z0.3 F1500.0 E15 ; Draw the first line
G1 X0.4 Y200.0 Z0.3 F5000.0 ; Move to side a little
G1 X0.4 Y20 Z0.3 F1500.0 E30 ; Draw the second line
G92 E0 ; Reset Extruder
G1 Z2.0 F3000 ; Move Z Axis up little to prevent scratching of Heat Bed
G1 X5 Y20 Z0.3 F5000.0 ; Move over to prevent blob squish
G92 E0
G92 E0
G1 F1500 E-6.5
;LAYER_COUNT:120
;LAYER:0
M107
G0 F6000 X92.546 Y100.602 Z0.2
;TYPE:SKIRT
G1 F1500 E0
G1 F1200 X94.539 Y99.469 E0.07625
G1 X96.436 Y98.93 E0.14184
G1 X109.474 Y98.124 E0.57632
G1 X110.251 Y98.113 E0.60216
G1 X110.988 Y98.142 E0.62669
G1 X111.708 Y98.2 E0.65072
G1 X112.312 Y98.28 E0.67098
G1 X113.325 Y98.474 E0.70529
G1 X114.349 Y98.736 E0.74044
G1 X115.261 Y99.035 E0.77236
G1 X116.267 Y99.437 E0.8084
G1 X116.714 Y99.645 E0.82479
G1 X118.027 Y100.361 E0.87454
G1 X118.483 Y100.651 E0.89251
G1 X119.656 Y101.517 E0.94101
G1 X120.301 Y102.073 E0.96933
G1 X120.921 Y102.66 E0.99773
G1 X121.387 Y103.153 E1.02029
G1 X122.181 Y104.116 E1.0618
G1 X122.868 Y105.084 E1.10128
G1 X123.833 Y106.638 E1.16212
G1 X124.531 Y109.41 E1.2572
G1 X124.242 Y111.686 E1.33351
G1 X123.859 Y113.25 E1.38706
G1 X122.785 Y115.046 E1.45666
G1 X122.503 Y115.461 E1.47335
G1 X121.965 Y116.168 E1.5029
G1 X121.444 Y116.789 E1.52986
G1 X121.077 Y117.186 E1.54784
G1 X120.188 Y118.028 E1.58857
G1 X119.346 Y118.731 E1.62505
G1 X118.925 Y119.042 E1.64246
G1 X118.081 Y119.597 E1.67606
G1 X117.481 Y119.949 E1.69919
G1 X116.534 Y120.435 E1.7346
G1 X116.044 Y120.656 E1.75247
G1 X114.765 Y121.132 E1.79786
G1 X114.004 Y121.358 E1.82427
G1 X112.652 Y121.661 E1.87035
G1 X111.532 Y121.821 E1.90798
G1 X111.14 Y121.855 E1.92107
G1 X109.873 Y121.885 E1.96322
G1 X95.89 Y121.048 E2.42913
G1 X93.441 Y120.016 E2.51752
G1 X91.365 Y118.333 E2.60641
G1 X90.028 Y116.229 E2.68932
G1 X89.242 Y113.826 E2.77341
G1 X89.24 Y106.651 E3.01205
G1 X89.717 Y104.504 E3.0852
G1 X90.837 Y102.36 E3.16566
G1 X92.546 Y100.602 E3.2472
G0 F6000 X92.793 Y100.922
G1 F1200 X94.696 Y99.84 E3.32001
G1 X96.505 Y99.326 E3.38256
G1 X109.48 Y98.524 E3.81494
G1 X110.235 Y98.513 E3.84005
G1 X110.956 Y98.541 E3.86405
G1 X111.655 Y98.597 E3.88737
G1 X112.259 Y98.677 E3.90764
G1 X113.226 Y98.862 E3.94038
G1 X114.25 Y99.124 E3.97554
G1 X115.113 Y99.407 E4.00575
G1 X116.098 Y99.8 E4.04102
G1 X116.545 Y100.008 E4.05742
G1 X117.812 Y100.699 E4.10542
G1 X118.268 Y100.989 E4.12339
G1 X119.395 Y101.82 E4.16996
G1 X120.026 Y102.363 E4.19765
G1 X120.63 Y102.935 E4.22532
G1 X121.096 Y103.428 E4.24788
G1 X121.872 Y104.37 E4.28848
G1 X122.528 Y105.295 E4.32619
G1 X123.46 Y106.796 E4.38496
G1 X124.125 Y109.435 E4.47547
G1 X123.853 Y111.591 E4.54775
G1 X123.484 Y113.099 E4.59939
G1 X122.454 Y114.821 E4.66613
G1 X122.172 Y115.236 E4.68281
G1 X121.658 Y115.911 E4.71103
G1 X121.15 Y116.517 E4.73733
G1 X120.783 Y116.914 E4.75531
G1 X119.913 Y117.737 E4.79515
G1 X119.108 Y118.409 E4.83002
G1 X118.687 Y118.72 E4.84743
G1 X117.879 Y119.252 E4.87961
G1 X117.298 Y119.593 E4.90202
G1 X116.37 Y120.07 E4.93672
G1 X115.88 Y120.291 E4.9546
G1 X114.626 Y120.757 E4.99909
G1 X113.916 Y120.968 E5.02373
G1 X112.595 Y121.265 E5.06876
G1 X111.497 Y121.422 E5.10565
G1 X111.105 Y121.456 E5.11874
G1 X109.864 Y121.485 E5.16003
G1 X95.984 Y120.653 E5.62251
G1 X93.649 Y119.669 E5.70678
G1 X91.667 Y118.063 E5.79163
G1 X90.392 Y116.056 E5.87071
G1 X89.642 Y113.763 E5.95096
G1 X89.64 Y106.693 E6.1861
G1 X90.095 Y104.645 E6.25588
G1 X91.165 Y102.597 E6.33274
G1 X92.793 Y100.922 E6.41042
G0 F6000 X93.04 Y101.242
G1 F1200 X94.853 Y100.211 E6.47979
G1 X96.574 Y99.722 E6.5393
G1 X109.486 Y98.924 E6.96957
G1 X110.22 Y98.913 E6.99399
G1 X110.924 Y98.94 E7.01742
G1 X111.602 Y98.994 E7.04004
G1 X112.206 Y99.074 E7.06031
G1 X113.127 Y99.25 E7.0915
G1 X114.151 Y99.512 E7.12665
G1 X114.988 Y99.787 E7.15595
G1 X115.929 Y100.163 E7.18966
G1 X116.376 Y100.371 E7.20606
G1 X117.597 Y101.037 E7.25231
G1 X118.053 Y101.327 E7.27029
G1 X119.157 Y102.142 E7.31593
G1 X119.751 Y102.653 E7.34199
G1 X120.339 Y103.21 E7.36893
G1 X120.805 Y103.703 E7.39149
G1 X121.546 Y104.602 E7.43024
G1 X122.188 Y105.506 E7.46712
G1 X123.087 Y106.954 E7.52381
G1 X123.719 Y109.46 E7.60977
G1 X123.464 Y111.496 E7.67801
G1 X123.109 Y112.948 E7.72773
G1 X122.123 Y114.596 E7.7916
G1 X121.841 Y115.011 E7.80829
G1 X121.352 Y115.654 E7.83516
G1 X120.856 Y116.245 E7.86082
G1 X120.489 Y116.642 E7.8788
G1 X119.657 Y117.43 E7.91692
G1 X118.87 Y118.087 E7.95102
G1 X118.449 Y118.398 E7.96842
G1 X117.676 Y118.907 E7.99921
G1 X117.115 Y119.237 E8.02086
G1 X116.206 Y119.705 E8.05486
G1 X115.716 Y119.926 E8.07274
G1 X114.487 Y120.382 E8.11634
G1 X113.828 Y120.578 E8.13921
G1 X112.538 Y120.869 E8.18319
G1 X111.462 Y121.023 E8.21934
G1 X111.07 Y121.057 E8.23243
G1 X109.855 Y121.085 E8.27285
G1 X96.078 Y120.258 E8.7319
G1 X93.857 Y119.322 E8.81206
G1 X91.969 Y117.793 E8.89287
G1 X90.756 Y115.883 E8.96812
G1 X90.042 Y113.7 E9.04452
G1 X90.04 Y106.735 E9.27617
G1 X90.473 Y104.786 E9.34258
G1 X91.493 Y102.834 E9.41583
G1 X93.04 Y101.242 E9.48966
G0 F6000 X93.287 Y101.562
G1 F1200 X95.01 Y100.582 E9.55559
G1 X96.643 Y100.118 E9.61205
G1 X109.492 Y99.324 E10.04023
G1 X110.205 Y99.313 E10.06395
G1 X110.892 Y99.339 E10.08681
G1 X111.549 Y99.391 E10.10873
G1 X112.153 Y99.471 E10.129
G1 X113.028 Y99.638 E10.15863
G1 X114.052 Y99.9 E10.19378
G1 X114.84 Y100.159 E10.22137
G1 X115.76 Y100.526 E10.25431
G1 X116.207 Y100.734 E10.27071
G1 X117.382 Y101.375 E10.31523
G1 X117.838 Y101.665 E10.3332
G1 X118.896 Y102.445 E10.37692
G1 X119.476 Y102.943 E10.40235
G1 X120.048 Y103.485 E10.42856
G1 X120.514 Y103.978 E10.45112
G1 X121.237 Y104.856 E10.48895
G1 X121.848 Y105.717 E10.52406
G1 X122.714 Y107.112 E10.57868
G1 X123.313 Y109.485 E10.66008
G1 X123.075 Y111.401 E10.72429
G1 X122.734 Y112.797 E10.77209
G1 X121.792 Y114.371 E10.8331
G1 X121.51 Y114.786 E10.84979
G1 X121.045 Y115.397 E10.87533
G1 X120.562 Y115.973 E10.90033
G1 X120.195 Y116.37 E10.91831
G1 X119.382 Y117.139 E10.95553
G1 X118.632 Y117.765 E10.98802
G1 X118.211 Y118.076 E11.00543
G1 X117.473 Y118.562 E11.03482
G1 X116.932 Y118.881 E11.05571
G1 X116.042 Y119.34 E11.08902
G1 X115.552 Y119.561 E11.1069
G1 X114.348 Y120.007 E11.1496
G1 X113.74 Y120.188 E11.1707
G1 X112.481 Y120.473 E11.21363
G1 X111.427 Y120.624 E11.24905
G1 X111.035 Y120.658 E11.26214
G1 X109.846 Y120.685 E11.30169
G1 X96.172 Y119.863 E11.75731
G1 X94.065 Y118.975 E11.83336
G1 X92.273 Y117.524 E11.91005
G1 X91.119 Y115.708 E11.98162
G1 X90.442 Y113.637 E12.05408
G1 X90.44 Y106.777 E12.28225
G1 X90.851 Y104.927 E12.34528
G1 X91.821 Y103.071 E12.41493
G1 X93.287 Y101.562 E12.48491
G0 F6000 X93.534 Y101.882
G1 F1200 X95.167 Y100.953 E12.5474
G1 X96.712 Y100.514 E12.60082
G1 X109.498 Y99.724 E13.02689
G1 X110.19 Y99.713 E13.04991
G1 X110.861 Y99.738 E13.07224
G1 X111.496 Y99.788 E13.09343
G1 X112.1 Y99.868 E13.11369
G1 X112.929 Y100.026 E13.14176
G1 X113.953 Y100.288 E13.17692
G1 X114.715 Y100.539 E13.2036
G1 X115.591 Y100.889 E13.23498
G1 X116.038 Y101.097 E13.25138
G1 X117.167 Y101.713 E13.29415
G1 X117.623 Y102.003 E13.31213
G1 X118.658 Y102.767 E13.35491
G1 X119.201 Y103.234 E13.37873
G1 X119.757 Y103.76 E13.40419
G1 X120.223 Y104.253 E13.42675
G1 X120.928 Y105.11 E13.46366
G1 X121.508 Y105.928 E13.49701
G1 X122.341 Y107.27 E13.54955
G1 X122.907 Y109.511 E13.62643
G1 X122.678 Y111.352 E13.68813
G1 X122.36 Y112.644 E13.73238
G1 X121.461 Y114.146 E13.79061
G1 X121.179 Y114.561 E13.80729
G1 X120.738 Y115.14 E13.8315
G1 X120.268 Y115.701 E13.85584
G1 X119.901 Y116.098 E13.87382
G1 X119.126 Y116.832 E13.90933
G1 X118.394 Y117.443 E13.94104
G1 X117.973 Y117.754 E13.95845
G1 X117.27 Y118.217 E13.98645
G1 X116.729 Y118.536 E14.00734
G1 X115.878 Y118.975 E14.03918
G1 X115.388 Y119.196 E14.05706
G1 X114.233 Y119.624 E14.09803
G1 X113.651 Y119.798 E14.11823
G1 X112.424 Y120.077 E14.16009
G1 X111.392 Y120.225 E14.19476
G1 X111 Y120.259 E14.20785
G1 X109.87 Y120.286 E14.24544
G1 X96.266 Y119.468 E14.69873
G1 X94.273 Y118.628 E14.77067
G1 X92.575 Y117.254 E14.84332
G1 X91.483 Y115.535 E14.91105
G1 X90.842 Y113.574 E14.97967
G1 X90.84 Y106.823 E15.20421
G1 X91.231 Y105.061 E15.26424
G1 X92.147 Y103.31 E15.32997
G1 X93.534 Y101.882 E15.39618
G0 F6000 X93.781 Y102.202
G1 F1200 X95.324 Y101.324 E15.45522
G1 X96.781 Y100.91 E15.5056
G1 X109.505 Y100.124 E15.92961
G1 X110.175 Y100.113 E15.9519
G1 X110.83 Y100.137 E15.9737
G1 X111.443 Y100.185 E15.99415
G1 X112.047 Y100.265 E16.01441
G1 X112.83 Y100.414 E16.04092
G1 X113.854 Y100.676 E16.07608
G1 X114.589 Y100.919 E16.10183
G1 X115.422 Y101.252 E16.13166
G1 X115.869 Y101.46 E16.14806
G1 X116.952 Y102.051 E16.1891
G1 X117.408 Y102.341 E16.20707
G1 X118.397 Y103.071 E16.24796
G1 X118.926 Y103.525 E16.27114
G1 X119.466 Y104.035 E16.29585
G1 X119.932 Y104.528 E16.31841
G1 X120.602 Y105.342 E16.35347
G1 X121.168 Y106.139 E16.38599
G1 X121.968 Y107.428 E16.43645
G1 X122.501 Y109.537 E16.5088
G1 X122.281 Y111.303 E16.56799
G1 X121.986 Y112.491 E16.6087
G1 X121.13 Y113.921 E16.66413
G1 X120.848 Y114.336 E16.68082
G1 X120.432 Y114.883 E16.70368
G1 X119.974 Y115.429 E16.72738
G1 X119.607 Y115.826 E16.74536
G1 X118.851 Y116.541 E16.77997
G1 X118.156 Y117.121 E16.81008
G1 X117.735 Y117.432 E16.82749
G1 X117.067 Y117.872 E16.85409
G1 X116.526 Y118.191 E16.87498
G1 X115.714 Y118.61 E16.90537
G1 X115.224 Y118.831 E16.92325
G1 X114.118 Y119.241 E16.96248
G1 X113.562 Y119.408 E16.98179
G1 X112.367 Y119.681 E17.02256
G1 X111.357 Y119.826 E17.0565
G1 X110.965 Y119.86 E17.06959
G1 X109.861 Y119.886 E17.10632
G1 X96.36 Y119.073 E17.55617
G1 X94.481 Y118.281 E17.62399
G1 X92.877 Y116.984 E17.6926
G1 X91.847 Y115.362 E17.75651
G1 X91.242 Y113.511 E17.82128
G1 X91.24 Y106.865 E18.04233
G1 X91.61 Y105.199 E18.09909
G1 X92.473 Y103.549 E18.16102
G1 X93.781 Y102.202 E18.22347
G0 F6000 X94.028 Y102.522
G1 F1200 X95.481 Y101.695 E18.27907
G1 X96.85 Y101.306 E18.32641
G1 X109.512 Y100.524 E18.74835
G1 X110.161 Y100.513 E18.76994
G1 X110.799 Y100.536 E18.79117
G1 X111.39 Y100.582 E18.81089
G1 X111.994 Y100.662 E18.83116
G1 X112.731 Y100.802 E18.85611
G1 X113.755 Y101.064 E18.89126
G1 X114.441 Y101.291 E18.9153
G1 X115.253 Y101.615 E18.94437
G1 X115.7 Y101.823 E18.96077
G1 X116.737 Y102.389 E19.00006
G1 X117.193 Y102.679 E19.01804
G1 X118.136 Y103.375 E19.05702
G1 X118.665 Y103.829 E19.08021
G1 X119.175 Y104.31 E19.10352
G1 X119.641 Y104.803 E19.12609
G1 X120.293 Y105.596 E19.16023
G1 X120.828 Y106.35 E19.19098
G1 X121.595 Y107.586 E19.23936
G1 X122.095 Y109.562 E19.30716
G1 X121.884 Y111.253 E19.36384
G1 X121.612 Y112.338 E19.40104
G1 X120.799 Y113.697 E19.45371
G1 X120.53 Y114.094 E19.46966
G1 X120.125 Y114.626 E19.4919
G1 X119.68 Y115.157 E19.51494
G1 X119.313 Y115.554 E19.53292
G1 X118.595 Y116.234 E19.56582
G1 X117.918 Y116.799 E19.59514
G1 X117.497 Y117.11 E19.61255
G1 X116.864 Y117.527 E19.63776
G1 X116.323 Y117.846 E19.65865
G1 X115.55 Y118.245 E19.68759
G1 X115.06 Y118.466 E19.70546
G1 X114.003 Y118.858 E19.74296
G1 X113.472 Y119.018 E19.76141
G1 X112.31 Y119.285 E19.80106
G1 X111.322 Y119.427 E19.83426
G1 X110.93 Y119.461 E19.84735
G1 X109.852 Y119.486 E19.88321
G1 X96.454 Y118.678 E20.32964
G1 X94.687 Y117.933 E20.39342
G1 X93.18 Y116.715 E20.45787
G1 X92.211 Y115.189 E20.51799
G1 X91.642 Y113.448 E20.57891
G1 X91.64 Y106.907 E20.79647
G1 X91.989 Y105.337 E20.84996
G1 X92.799 Y103.788 E20.9081
G1 X94.028 Y102.522 E20.96678
G0 F6000 X94.275 Y102.842
G1 F1200 X95.638 Y102.066 E21.01895
G1 X96.919 Y101.702 E21.06324
G1 X109.519 Y100.924 E21.48312
G1 X110.147 Y100.913 E21.50401
G1 X110.768 Y100.935 E21.52467
G1 X111.337 Y100.979 E21.54366
G1 X111.941 Y101.059 E21.56392
G1 X112.632 Y101.19 E21.58731
G1 X113.656 Y101.452 E21.62247
G1 X114.315 Y101.671 E21.64557
G1 X115.084 Y101.978 E21.67311
G1 X115.531 Y102.186 E21.6895
G1 X116.522 Y102.727 E21.72706
G1 X116.978 Y103.017 E21.74503
G1 X117.875 Y103.679 E21.78211
G1 X118.404 Y104.133 E21.8053
G1 X118.884 Y104.585 E21.82722
G1 X119.35 Y105.078 E21.84979
G1 X119.984 Y105.85 E21.88301
G1 X120.488 Y106.561 E21.912
G1 X121.222 Y107.744 E21.9583
G1 X121.689 Y109.588 E22.02157
G1 X121.496 Y111.156 E22.07412
G1 X121.238 Y112.185 E22.1094
G1 X120.468 Y113.473 E22.15931
G1 X120.212 Y113.852 E22.17452
G1 X119.819 Y114.369 E22.19612
G1 X119.386 Y114.885 E22.21853
G1 X119.019 Y115.282 E22.23651
G1 X118.32 Y115.943 E22.26851
G1 X117.68 Y116.477 E22.29623
G1 X117.259 Y116.788 E22.31364
G1 X116.661 Y117.182 E22.33746
G1 X116.12 Y117.501 E22.35835
G1 X115.386 Y117.88 E22.38582
G1 X114.896 Y118.101 E22.4037
G1 X113.887 Y118.475 E22.43949
G1 X113.382 Y118.628 E22.45704
G1 X112.253 Y118.889 E22.49558
G1 X111.287 Y119.028 E22.52804
G1 X110.895 Y119.062 E22.54113
G1 X109.843 Y119.086 E22.57613
G1 X96.548 Y118.283 E23.01913
G1 X94.893 Y117.585 E23.07887
G1 X93.483 Y116.446 E23.13916
G1 X92.575 Y115.016 E23.1955
G1 X92.042 Y113.385 E23.25257
G1 X92.04 Y106.949 E23.46663
G1 X92.367 Y105.476 E23.51681
G1 X93.126 Y104.026 E23.57125
G1 X94.275 Y102.842 E23.62612
G0 F6000 X94.522 Y103.162
G1 F1200 X95.795 Y102.437 E23.67485
G1 X96.988 Y102.098 E23.7161
G1 X109.526 Y101.324 E24.13391
G1 X110.133 Y101.313 E24.1541
G1 X110.737 Y101.334 E24.1742
G1 X111.284 Y101.376 E24.19245
G1 X111.888 Y101.456 E24.21271
G1 X112.558 Y101.583 E24.23539
G1 X113.53 Y101.832 E24.26877
G1 X114.189 Y102.051 E24.29186
G1 X114.915 Y102.341 E24.31787
G1 X115.362 Y102.549 E24.33426
G1 X116.307 Y103.065 E24.37007
G1 X116.763 Y103.355 E24.38805
G1 X117.614 Y103.983 E24.42323
G1 X118.143 Y104.437 E24.44641
G1 X118.593 Y104.86 E24.46695
G1 X119.059 Y105.353 E24.48952
G1 X119.658 Y106.082 E24.5209
G1 X120.148 Y106.772 E24.54905
G1 X120.849 Y107.902 E24.59327
G1 X121.283 Y109.614 E24.65202
G1 X121.108 Y111.059 E24.70043
G1 X120.864 Y112.032 E24.73379
G1 X120.137 Y113.249 E24.78094
G1 X119.893 Y113.61 E24.79544
G1 X119.512 Y114.112 E24.8164
G1 X119.092 Y114.613 E24.83814
G1 X118.725 Y115.01 E24.85612
G1 X118.064 Y115.636 E24.8864
G1 X117.442 Y116.155 E24.91335
G1 X117.021 Y116.466 E24.93075
G1 X116.458 Y116.837 E24.95318
G1 X115.917 Y117.156 E24.97407
G1 X115.222 Y117.515 E25.00009
G1 X114.732 Y117.736 E25.01796
G1 X113.77 Y118.092 E25.05208
G1 X113.291 Y118.238 E25.06874
G1 X112.196 Y118.493 E25.10613
G1 X111.252 Y118.629 E25.13785
G1 X110.86 Y118.663 E25.15094
G1 X109.834 Y118.686 E25.18507
G1 X96.643 Y117.888 E25.62461
G1 X95.098 Y117.236 E25.68038
G1 X93.786 Y116.177 E25.73646
G1 X92.939 Y114.843 E25.78902
G1 X92.442 Y113.322 E25.84224
G1 X92.44 Y106.991 E26.05281
G1 X92.746 Y105.614 E26.09973
G1 X93.452 Y104.265 E26.15037
G1 X94.522 Y103.162 E26.20148
G0 F6000 X94.767 Y103.483
G1 F1200 X95.952 Y102.808 E26.24684
G1 X97.057 Y102.494 E26.28505
G1 X109.534 Y101.724 E26.70082
G1 X110.119 Y101.713 E26.72028
G1 X110.707 Y101.733 E26.73985
G1 X111.231 Y101.773 E26.75733
G1 X111.835 Y101.853 E26.7776
G1 X112.484 Y101.976 E26.79957
G1 X113.404 Y102.212 E26.83116
