;FLAVOR:Marlin
;TIME:6885
;Filament used: 3.78497m
;Layer height: 0.2
;MINX:76.327
;MINY:93.877
;MINZ:0.2
;MAXX:139.799
;MAXY:125.9
;MAXZ:48
;TARGET_MACHINE.NAME:Creality Ender-3 Pro
;Generated with Cura_SteamEngine 5.6.0
M82 ;absolute extrusion mode
; Ender 3 Custom Start G-code
G92 E0 ; Reset Extruder
G28 ; Home all axes
G1 Z5.0 F3000 ; Move Z Axis up a bit during heating to not damage bed
M104 S175 ; Start heating up the nozzle most of the way
M190 S60 ; Start heating the bed, wait until target temperature reached
M109 S200 ; Finish heating the nozzle
G1 Z2.0 F3000 ; Move Z Axis up little to prevent scratching of Heat Bed
G1 X0.1 Y20 Z0.3 F5000.0 ; Move to start position
G1 X0.1 Y200.0 Z0.3 F1500.0 E15 ; Draw the first line
G1 X0.4 Y200.0 Z0.3 F5000.0 ; Move to side a little
G1 X0.4 Y20 Z0.3 F1500.0 E30 ; Draw the second line
G92 E0 ; Reset Extruder
G1 Z2.0 F3000 ; Move Z Axis up little to prevent scratching of Heat Bed
G1 X5 Y20 Z0.3 F5000.0 ; Move over to prevent blob squish
G92 E0
G92 E0
G1 F1500 E-6.5
;LAYER_COUNT:240
;LAYER:0
M107
G0 F6000 X80.464 Y97.071 Z0.2
;TYPE:SKIRT
G1 F1500 E0
G1 F1200 X83.251 Y95.804 E0.10183
G1 X84.804 Y95.605 E0.1539
G1 X109.123 Y94.12 E0.96426
G1 X110.237 Y94.1 E1.00132
G1 X111.424 Y94.14 E1.04082
G1 X112.258 Y94.205 E1.06864
G1 X113.814 Y94.417 E1.12087
G1 X114.394 Y94.526 E1.1405
G1 X115.247 Y94.705 E1.16949
G1 X115.968 Y94.882 E1.19418
G1 X116.798 Y95.124 E1.22294
G1 X117.73 Y95.44 E1.25567
G1 X118.472 Y95.725 E1.28211
G1 X119.487 Y96.158 E1.31881
G1 X120.168 Y96.484 E1.34392
G1 X121.224 Y97.042 E1.38365
G1 X122.041 Y97.526 E1.41523
G1 X122.687 Y97.941 E1.44077
G1 X123.517 Y98.528 E1.47458
G1 X124.417 Y99.224 E1.51242
G1 X125.268 Y99.96 E1.54984
G1 X126.054 Y100.704 E1.58584
G1 X126.829 Y101.52 E1.62327
G1 X127.555 Y102.351 E1.65997
G1 X128.104 Y103.042 E1.68933
G1 X128.815 Y104.034 E1.72992
G1 X129.416 Y104.967 E1.76683
G1 X129.963 Y105.972 E1.80489
G1 X130.795 Y108.018 E1.87835
G1 X130.968 Y110.801 E1.97109
G1 X130.365 Y113.069 E2.04915
G1 X129.914 Y114.132 E2.08755
G1 X129.104 Y115.532 E2.14135
G1 X128.381 Y116.593 E2.18405
G1 X127.869 Y117.267 E2.2122
G1 X127.104 Y118.178 E2.25177
G1 X126.577 Y118.755 E2.27776
G1 X125.904 Y119.441 E2.30972
G1 X125.098 Y120.191 E2.34634
G1 X124.39 Y120.789 E2.37717
G1 X123.606 Y121.404 E2.41031
G1 X122.567 Y122.141 E2.45268
G1 X121.782 Y122.634 E2.48351
G1 X120.434 Y123.383 E2.5348
G1 X119.63 Y123.776 E2.56456
G1 X118.52 Y124.255 E2.60477
G1 X118.008 Y124.451 E2.62301
G1 X116.966 Y124.816 E2.65973
G1 X116.248 Y125.036 E2.68471
G1 X115.463 Y125.246 E2.71173
G1 X114.717 Y125.413 E2.73716
G1 X113.686 Y125.603 E2.77203
G1 X112.741 Y125.733 E2.80375
G1 X112.126 Y125.802 E2.82434
G1 X110.802 Y125.887 E2.86846
G1 X109.707 Y125.9 E2.90489
G1 X108.844 Y125.862 E2.93362
G1 X84.182 Y124.366 E3.75539
G1 X82.182 Y123.7 E3.8255
G1 X80.99 Y123.111 E3.86972
G1 X79.225 Y121.979 E3.93946
G1 X77.684 Y119.889 E4.02583
G1 X76.818 Y118.037 E4.09383
G1 X76.327 Y115.848 E4.16844
G1 X76.365 Y104.309 E4.55223
G1 X76.443 Y103.648 E4.57437
G1 X76.831 Y101.793 E4.6374
G1 X77.299 Y100.726 E4.67616
G1 X78.656 Y98.773 E4.75525
G1 X80.464 Y97.071 E4.83784
G0 F6000 X80.689 Y97.408
G1 F1200 X83.361 Y96.193 E4.93547
G1 X84.855 Y96.002 E4.98556
G1 X109.13 Y94.52 E5.79446
G1 X110.224 Y94.5 E5.83085
G1 X111.393 Y94.539 E5.86975
G1 X112.227 Y94.604 E5.89758
G1 X113.74 Y94.81 E5.94836
G1 X114.312 Y94.917 E5.96772
G1 X115.152 Y95.093 E5.99626
G1 X115.856 Y95.266 E6.02037
G1 X116.67 Y95.503 E6.04857
G1 X117.587 Y95.814 E6.08078
G1 X118.315 Y96.093 E6.10671
G1 X119.314 Y96.519 E6.14283
G1 X119.981 Y96.838 E6.16742
G1 X121.02 Y97.386 E6.20649
G1 X121.825 Y97.863 E6.23761
G1 X122.456 Y98.268 E6.26255
G1 X123.272 Y98.845 E6.29579
G1 X124.155 Y99.527 E6.3329
G1 X124.993 Y100.251 E6.36973
G1 X125.764 Y100.98 E6.40502
G1 X126.528 Y101.783 E6.44189
G1 X127.242 Y102.6 E6.47798
G1 X127.779 Y103.275 E6.50667
G1 X128.479 Y104.251 E6.54661
G1 X129.065 Y105.159 E6.58256
G1 X129.592 Y106.123 E6.6191
G1 X130.4 Y108.11 E6.69044
G1 X130.565 Y110.759 E6.77872
G1 X129.978 Y112.966 E6.85468
G1 X129.546 Y113.974 E6.89115
G1 X128.773 Y115.307 E6.9424
G1 X128.062 Y116.351 E6.98441
G1 X127.55 Y117.025 E7.01257
G1 X126.809 Y117.908 E7.0509
G1 X126.291 Y118.475 E7.07645
G1 X125.631 Y119.148 E7.1078
G1 X124.84 Y119.885 E7.14376
G1 X124.143 Y120.474 E7.17411
G1 X123.374 Y121.078 E7.20663
G1 X122.354 Y121.802 E7.24824
G1 X121.588 Y122.284 E7.27834
G1 X120.258 Y123.024 E7.32896
G1 X119.472 Y123.409 E7.35807
G1 X118.377 Y123.881 E7.39773
G1 X117.876 Y124.073 E7.41557
G1 X116.834 Y124.438 E7.4523
G1 X116.144 Y124.65 E7.4763
G1 X115.376 Y124.856 E7.50275
G1 X114.644 Y125.02 E7.5277
G1 X113.632 Y125.207 E7.56193
G1 X112.696 Y125.335 E7.59335
G1 X112.081 Y125.404 E7.61393
G1 X110.797 Y125.487 E7.65673
G1 X109.724 Y125.5 E7.69242
G1 X108.868 Y125.463 E7.72092
G1 X84.261 Y123.97 E8.54085
G1 X82.308 Y123.32 E8.60931
G1 X81.206 Y122.774 E8.65022
G1 X79.502 Y121.681 E8.71755
G1 X78.028 Y119.682 E8.80016
G1 X77.198 Y117.907 E8.86533
G1 X76.727 Y115.806 E8.93695
G1 X76.762 Y104.355 E9.31781
G1 X76.835 Y103.73 E9.33874
G1 X77.215 Y101.913 E9.40048
G1 X77.649 Y100.924 E9.4364
G1 X78.962 Y99.033 E9.51297
G1 X80.689 Y97.408 E9.59184
G0 F6000 X80.915 Y97.744
G1 F1200 X83.47 Y96.583 E9.68518
G1 X84.906 Y96.399 E9.73334
G1 X109.137 Y94.92 E10.54076
G1 X110.211 Y94.9 E10.57649
G1 X111.362 Y94.938 E10.61479
G1 X112.196 Y95.003 E10.64262
G1 X113.667 Y95.203 E10.69199
G1 X114.23 Y95.308 E10.71104
G1 X115.057 Y95.482 E10.73915
G1 X115.744 Y95.65 E10.76267
G1 X116.542 Y95.882 E10.79031
G1 X117.444 Y96.187 E10.82198
G1 X118.158 Y96.461 E10.84742
G1 X119.142 Y96.88 E10.88299
G1 X119.795 Y97.192 E10.90706
G1 X120.816 Y97.73 E10.94544
G1 X121.609 Y98.2 E10.9761
G1 X122.24 Y98.605 E11.00104
G1 X123.027 Y99.162 E11.03311
G1 X123.91 Y99.844 E11.07022
G1 X124.718 Y100.542 E11.10573
G1 X125.474 Y101.256 E11.14032
G1 X126.227 Y102.046 E11.17662
G1 X126.929 Y102.849 E11.21209
G1 X127.454 Y103.508 E11.24012
G1 X128.143 Y104.468 E11.27942
G1 X128.714 Y105.352 E11.31442
G1 X129.221 Y106.274 E11.34942
G1 X130.005 Y108.202 E11.41864
G1 X130.162 Y110.718 E11.50249
G1 X129.61 Y112.808 E11.57438
G1 X129.178 Y113.816 E11.61086
G1 X128.442 Y115.082 E11.65957
G1 X127.743 Y116.109 E11.70088
G1 X127.231 Y116.783 E11.72904
G1 X126.513 Y117.638 E11.76617
G1 X126.005 Y118.195 E11.79124
G1 X125.358 Y118.856 E11.82201
G1 X124.582 Y119.58 E11.85731
G1 X123.896 Y120.16 E11.88719
G1 X123.143 Y120.752 E11.91904
G1 X122.141 Y121.463 E11.95991
G1 X121.375 Y121.945 E11.99001
G1 X120.082 Y122.665 E12.03923
G1 X119.313 Y123.042 E12.06772
G1 X118.234 Y123.508 E12.10681
G1 X117.744 Y123.696 E12.12427
G1 X116.717 Y124.056 E12.16046
G1 X116.04 Y124.264 E12.18402
G1 X115.288 Y124.466 E12.20992
G1 X114.571 Y124.627 E12.23436
G1 X113.578 Y124.811 E12.26795
G1 X112.651 Y124.938 E12.29907
G1 X112.055 Y125.005 E12.31902
G1 X110.792 Y125.087 E12.36111
G1 X109.741 Y125.1 E12.39607
G1 X108.892 Y125.064 E12.42433
G1 X84.34 Y123.574 E13.24244
G1 X82.434 Y122.94 E13.30925
G1 X81.422 Y122.437 E13.34684
G1 X79.779 Y121.383 E13.41176
G1 X78.372 Y119.475 E13.49061
G1 X77.579 Y117.778 E13.55291
G1 X77.127 Y115.763 E13.62159
G1 X77.159 Y104.401 E13.9995
G1 X77.227 Y103.812 E14.01922
G1 X77.599 Y102.033 E14.07967
G1 X78 Y101.118 E14.11289
G1 X79.266 Y99.296 E14.18669
G1 X80.915 Y97.744 E14.262
G0 F6000 X81.14 Y98.081
G1 F1200 X83.58 Y96.972 E14.35115
G1 X84.957 Y96.796 E14.39732
G1 X109.145 Y95.32 E15.20331
G1 X110.198 Y95.3 E15.23834
G1 X111.331 Y95.337 E15.27605
G1 X112.165 Y95.402 E15.30387
G1 X113.594 Y95.596 E15.35183
G1 X114.147 Y95.699 E15.37054
G1 X114.962 Y95.871 E15.39825
G1 X115.649 Y96.039 E15.42177
G1 X116.414 Y96.261 E15.44826
G1 X117.301 Y96.561 E15.47941
G1 X118.001 Y96.829 E15.50434
G1 X118.97 Y97.241 E15.53936
G1 X119.609 Y97.546 E15.56291
G1 X120.612 Y98.074 E15.60061
G1 X121.393 Y98.537 E15.63081
G1 X122.009 Y98.932 E15.65515
G1 X122.782 Y99.479 E15.68664
G1 X123.665 Y100.161 E15.72375
G1 X124.443 Y100.833 E15.75794
G1 X125.199 Y101.547 E15.79253
G1 X125.926 Y102.309 E15.82756
G1 X126.616 Y103.098 E15.86242
G1 X127.129 Y103.741 E15.88978
G1 X127.807 Y104.685 E15.92843
G1 X128.363 Y105.545 E15.9625
G1 X128.87 Y106.467 E15.99749
G1 X129.61 Y108.293 E16.06302
G1 X129.759 Y110.678 E16.1425
G1 X129.242 Y112.65 E16.21031
G1 X128.81 Y113.658 E16.24678
G1 X128.097 Y114.88 E16.29384
G1 X127.424 Y115.867 E16.33357
G1 X126.912 Y116.541 E16.36172
G1 X126.217 Y117.368 E16.39765
G1 X125.709 Y117.925 E16.42273
G1 X125.085 Y118.564 E16.45243
G1 X124.323 Y119.275 E16.4871
G1 X123.649 Y119.846 E16.51648
G1 X122.912 Y120.426 E16.54767
G1 X121.928 Y121.124 E16.5878
G1 X121.162 Y121.606 E16.6179
G1 X119.906 Y122.306 E16.66572
G1 X119.154 Y122.675 E16.69358
G1 X118.091 Y123.135 E16.73211
G1 X117.611 Y123.319 E16.7492
G1 X116.6 Y123.674 E16.78484
G1 X115.936 Y123.878 E16.80795
G1 X115.2 Y124.076 E16.8333
G1 X114.498 Y124.234 E16.85723
G1 X113.524 Y124.415 E16.89018
G1 X112.606 Y124.541 E16.921
G1 X112.029 Y124.606 E16.94031
G1 X110.787 Y124.687 E16.98171
G1 X109.758 Y124.7 E17.01594
G1 X108.916 Y124.665 E17.04396
G1 X84.418 Y123.178 E17.86027
G1 X82.611 Y122.581 E17.92357
G1 X81.638 Y122.1 E17.95967
G1 X80.056 Y121.085 E18.02218
G1 X78.716 Y119.268 E18.09727
G1 X77.959 Y117.649 E18.15672
G1 X77.527 Y115.721 E18.22243
G1 X77.557 Y104.446 E18.59744
G1 X77.619 Y103.894 E18.61592
G1 X77.984 Y102.151 E18.67515
G1 X78.35 Y101.314 E18.70553
G1 X79.57 Y99.559 E18.77662
G1 X81.14 Y98.081 E18.84834
G0 F6000 X81.365 Y98.418
G1 F1200 X83.69 Y97.361 E18.93328
G1 X85.008 Y97.193 E18.97748
G1 X109.153 Y95.72 E19.78204
G1 X110.185 Y95.7 E19.81637
G1 X111.3 Y95.736 E19.85347
G1 X112.134 Y95.801 E19.88129
G1 X113.521 Y95.989 E19.92785
G1 X114.064 Y96.09 E19.94622
G1 X114.867 Y96.26 E19.97352
G1 X115.554 Y96.428 E19.99704
G1 X116.286 Y96.64 E20.02239
G1 X117.158 Y96.935 E20.053
G1 X117.845 Y97.197 E20.07746
G1 X118.798 Y97.602 E20.1119
G1 X119.423 Y97.9 E20.13493
G1 X120.408 Y98.418 E20.17195
G1 X121.177 Y98.874 E20.20168
G1 X121.778 Y99.259 E20.22542
G1 X122.537 Y99.796 E20.25634
G1 X123.42 Y100.478 E20.29345
G1 X124.169 Y101.124 E20.32635
G1 X124.91 Y101.823 E20.36023
G1 X125.625 Y102.572 E20.39467
G1 X126.303 Y103.347 E20.42892
G1 X126.804 Y103.975 E20.45564
G1 X127.471 Y104.902 E20.49362
G1 X128.012 Y105.738 E20.52674
G1 X128.519 Y106.66 E20.56174
G1 X129.215 Y108.384 E20.62358
G1 X129.356 Y110.638 E20.69869
G1 X128.874 Y112.492 E20.76241
G1 X128.442 Y113.5 E20.79888
G1 X127.766 Y114.655 E20.84339
G1 X127.105 Y115.625 E20.88243
G1 X126.593 Y116.299 E20.91059
G1 X125.921 Y117.099 E20.94534
G1 X125.423 Y117.646 E20.96994
G1 X124.812 Y118.272 E20.99903
G1 X124.064 Y118.97 E21.03306
G1 X123.401 Y119.532 E21.06197
G1 X122.68 Y120.1 E21.0925
G1 X121.715 Y120.785 E21.13186
G1 X120.949 Y121.267 E21.16196
G1 X119.73 Y121.947 E21.20838
G1 X118.995 Y122.308 E21.23562
G1 X117.948 Y122.762 E21.27358
G1 X117.479 Y122.942 E21.29029
G1 X116.482 Y123.292 E21.32543
G1 X115.832 Y123.492 E21.34805
G1 X115.112 Y123.686 E21.37285
G1 X114.425 Y123.841 E21.39627
G1 X113.469 Y124.019 E21.42862
G1 X112.561 Y124.144 E21.4591
G1 X112.003 Y124.207 E21.47778
G1 X110.782 Y124.287 E21.51848
G1 X109.774 Y124.3 E21.55201
G1 X108.94 Y124.266 E21.57977
G1 X84.495 Y122.782 E22.39431
G1 X82.736 Y122.201 E22.45592
G1 X81.854 Y121.763 E22.48868
G1 X80.333 Y120.787 E22.54878
G1 X79.062 Y119.063 E22.62002
G1 X78.339 Y117.518 E22.67676
G1 X77.927 Y115.679 E22.73944
G1 X77.955 Y104.491 E23.11156
G1 X78.017 Y103.939 E23.13003
G1 X78.366 Y102.277 E23.18651
G1 X78.703 Y101.506 E23.2145
G1 X79.874 Y99.822 E23.28272
G1 X81.365 Y98.418 E23.35084
G0 F6000 X81.59 Y98.755
G1 F1200 X83.8 Y97.75 E23.43159
G1 X85.058 Y97.59 E23.47376
G1 X109.161 Y96.12 E24.27692
G1 X110.172 Y96.1 E24.31056
G1 X111.269 Y96.135 E24.34706
G1 X112.103 Y96.2 E24.37488
G1 X113.448 Y96.382 E24.42003
G1 X113.981 Y96.481 E24.43806
G1 X114.772 Y96.649 E24.46495
G1 X115.459 Y96.817 E24.48848
G1 X116.158 Y97.019 E24.51268
G1 X117.016 Y97.309 E24.5428
G1 X117.689 Y97.565 E24.56675
G1 X118.626 Y97.963 E24.60061
G1 X119.237 Y98.254 E24.62312
G1 X120.204 Y98.762 E24.65945
G1 X120.962 Y99.211 E24.68875
G1 X121.547 Y99.585 E24.71184
G1 X122.293 Y100.113 E24.74224
G1 X123.159 Y100.781 E24.77862
G1 X123.895 Y101.415 E24.81093
G1 X124.621 Y102.099 E24.8441
G1 X125.324 Y102.835 E24.87795
G1 X125.99 Y103.596 E24.91159
G1 X126.479 Y104.209 E24.93767
G1 X127.135 Y105.12 E24.97501
G1 X127.661 Y105.931 E25.00716
G1 X128.168 Y106.853 E25.04216
G1 X128.82 Y108.474 E25.10027
G1 X128.953 Y110.599 E25.17108
G1 X128.506 Y112.334 E25.23068
G1 X128.074 Y113.342 E25.26715
G1 X127.435 Y114.43 E25.30912
G1 X126.786 Y115.383 E25.34747
G1 X126.274 Y116.057 E25.37562
G1 X125.625 Y116.83 E25.40919
G1 X125.137 Y117.367 E25.43332
G1 X124.539 Y117.98 E25.46181
G1 X123.805 Y118.665 E25.4952
G1 X123.154 Y119.218 E25.52361
G1 X122.448 Y119.774 E25.5535
G1 X121.502 Y120.446 E25.59209
G1 X120.736 Y120.928 E25.62219
G1 X119.554 Y121.588 E25.66722
G1 X118.836 Y121.941 E25.69383
G1 X117.804 Y122.389 E25.73125
G1 X117.347 Y122.565 E25.74754
G1 X116.364 Y122.91 E25.78219
G1 X115.728 Y123.106 E25.80432
G1 X115.024 Y123.296 E25.82858
G1 X114.352 Y123.448 E25.85149
G1 X113.414 Y123.623 E25.88323
G1 X112.516 Y123.747 E25.91338
G1 X111.977 Y123.808 E25.93142
G1 X110.777 Y123.887 E25.97142
G1 X109.79 Y123.9 E26.00425
G1 X108.964 Y123.867 E26.03174
G1 X84.572 Y122.386 E26.84452
G1 X82.913 Y121.842 E26.90259
G1 X82.07 Y121.426 E26.93386
G1 X80.61 Y120.489 E26.99156
G1 X79.406 Y118.856 E27.05904
G1 X78.72 Y117.389 E27.1129
G1 X78.327 Y115.636 E27.17265
G1 X78.353 Y104.536 E27.54184
G1 X78.415 Y103.984 E27.56032
G1 X78.749 Y102.399 E27.61419
G1 X79.052 Y101.706 E27.63935
G1 X80.18 Y100.082 E27.70511
G1 X81.59 Y98.755 E27.76951
G0 F6000 X81.815 Y99.092
G1 F1200 X83.91 Y98.139 E27.84606
G1 X85.108 Y97.987 E27.88623
G1 X109.169 Y96.52 E28.68799
G1 X110.159 Y96.5 E28.72092
G1 X111.238 Y96.534 E28.75683
G1 X112.072 Y96.599 E28.78465
G1 X113.375 Y96.775 E28.82838
G1 X113.898 Y96.872 E28.84607
G1 X114.677 Y97.038 E28.87256
G1 X115.364 Y97.206 E28.89609
G1 X116.03 Y97.398 E28.91914
G1 X116.874 Y97.683 E28.94877
G1 X117.533 Y97.933 E28.97221
G1 X118.454 Y98.324 E29.00549
G1 X119.051 Y98.608 E29.02748
G1 X120 Y99.106 E29.06312
G1 X120.747 Y99.548 E29.09199
G1 X121.316 Y99.911 E29.11444
G1 X122.049 Y100.43 E29.14431
G1 X122.898 Y101.084 E29.17996
G1 X123.621 Y101.706 E29.21168
G1 X124.332 Y102.376 E29.24417
G1 X125.023 Y103.098 E29.27741
G1 X125.677 Y103.845 E29.31043
G1 X126.154 Y104.443 E29.33588
G1 X126.81 Y105.354 E29.37321
G1 X127.31 Y106.124 E29.40375
G1 X127.817 Y107.046 E29.43875
G1 X128.425 Y108.563 E29.4931
G1 X128.55 Y110.559 E29.55962
G1 X128.138 Y112.176 E29.61512
G1 X127.706 Y113.184 E29.6516
G1 X127.104 Y114.205 E29.69102
G1 X126.455 Y115.158 E29.72937
G1 X125.967 Y115.8 E29.75619
G1 X125.329 Y116.561 E29.78922
G1 X124.851 Y117.088 E29.81288
G1 X124.266 Y117.688 E29.84075
G1 X123.546 Y118.36 E29.87351
G1 X122.907 Y118.904 E29.90142
G1 X122.216 Y119.448 E29.93067
G1 X121.289 Y120.107 E29.9685
G1 X120.523 Y120.589 E29.9986
G1 X119.377 Y121.229 E30.04226
G1 X118.676 Y121.574 E30.06825
G1 X117.66 Y122.016 E30.1051
G1 X117.215 Y122.188 E30.12097
G1 X116.246 Y122.528 E30.15512
G1 X115.624 Y122.72 E30.17677
G1 X114.936 Y122.906 E30.20048
G1 X114.278 Y123.055 E30.22292
G1 X113.359 Y123.227 E30.25401
G1 X112.471 Y123.35 E30.28383
G1 X111.951 Y123.409 E30.30124
G1 X110.772 Y123.487 E30.34054
G1 X109.806 Y123.5 E30.37267
