;FLAVOR:Marlin
;TIME:3243
;Filament used: 1.67787m
;Layer height: 0.2
;MINX:96.064
;MINY:87.066
;MINZ:0.2
;MAXX:123.94
;MAXY:132.909
;MAXZ:37.4
;TARGET_MACHINE.NAME:Creality Ender-3 Pro
;Generated with Cura_SteamEngine 5.6.0
M82 ;absolute extrusion mode
; Ender 3 Custom Start G-code
G92 E0 ; Reset Extruder
G28 ; Home all axes
G1 Z5.0 F3000 ; Move Z Axis up a bit during heating to not damage bed
M104 S175 ; Start heating up the nozzle most of the way
M190 S60 ; Start heating the bed, wait until target temperature reached
M109 S200 ; Finish heating the nozzle
G1 Z2.0 F3000 ; Move Z Axis up little to prevent scratching of Heat Bed
G1 X0.1 Y20 Z0.3 F5000.0 ; Move to start position
G1 X0.1 Y200.0 Z0.3 F1500.0 E15 ; Draw the first line
G1 X0.4 Y200.0 Z0.3 F5000.0 ; Move to side a little
G1 X0.4 Y20 Z0.3 F1500.0 E30 ; Draw the second line
G92 E0 ; Reset Extruder
G1 Z2.0 F3000 ; Move Z Axis up little to prevent scratching of Heat Bed
G1 X5 Y20 Z0.3 F5000.0 ; Move over to prevent blob squish
G92 E0
G92 E0
G1 F1500 E-6.5
;LAYER_COUNT:187
;LAYER:0
M107
G0 F6000 X100.24 Y96.989 Z0.2
;TYPE:SKIRT
G1 F1500 E0
G1 F1200 X100.737 Y96.495 E0.02331
G1 X101.813 Y95.557 E0.07078
G1 X102.435 Y95.101 E0.09644
G1 X104.064 Y94.145 E0.15926
G1 X105.34 Y93.579 E0.20569
G1 X106.413 Y93.218 E0.24334
G1 X107.332 Y92.988 E0.27485
G1 X108.267 Y92.832 E0.30638
G1 X110.323 Y92.729 E0.37484
G1 X111.39 Y92.789 E0.41039
G1 X112.041 Y92.874 E0.43223
G1 X113.147 Y93.097 E0.46975
G1 X113.701 Y93.25 E0.48887
G1 X114.89 Y93.663 E0.53073
G1 X115.597 Y93.972 E0.55639
G1 X116.346 Y94.356 E0.58439
G1 X117.603 Y95.14 E0.63366
G1 X118.758 Y96.034 E0.68224
G1 X119.303 Y96.531 E0.70677
G1 X120.086 Y97.348 E0.74441
G1 X120.607 Y97.97 E0.7714
G1 X121.08 Y98.595 E0.79747
G1 X121.287 Y98.893 E0.80954
G1 X122.03 Y100.123 E0.85733
G1 X122.286 Y100.615 E0.87578
G1 X122.772 Y101.685 E0.91486
G1 X123.078 Y102.505 E0.94397
G1 X123.497 Y103.969 E0.99462
G1 X123.632 Y104.578 E1.01537
G1 X123.792 Y105.521 E1.04718
G1 X123.924 Y106.789 E1.08958
G1 X123.94 Y107.115 E1.10044
G1 X123.914 Y108.8 E1.15649
G1 X123.861 Y109.426 E1.17739
G1 X123.717 Y110.493 E1.2132
G1 X123.65 Y110.861 E1.22564
G1 X123.435 Y111.761 E1.25641
G1 X123.348 Y112.496 E1.28103
G1 X122.972 Y114.178 E1.33835
G1 X122.526 Y115.458 E1.38344
G1 X121.844 Y116.871 E1.43562
G1 X121.051 Y118.127 E1.48503
G1 X120.28 Y119.107 E1.5265
G1 X119.295 Y120.131 E1.57376
G1 X118.593 Y120.747 E1.60482
G1 X117.42 Y121.59 E1.65286
G1 X116.19 Y122.302 E1.70013
G1 X115.277 Y122.723 E1.73357
G1 X114.198 Y123.119 E1.7718
G1 X112.896 Y123.474 E1.81669
G1 X112.344 Y123.582 E1.83539
G1 X110.842 Y123.755 E1.88568
G1 X109.82 Y123.782 E1.91969
G1 X108.767 Y123.73 E1.95475
G1 X108.271 Y123.675 E1.97135
G1 X106.668 Y123.37 E2.02562
G1 X106.134 Y123.223 E2.04404
G1 X104.696 Y122.711 E2.09481
G1 X103.897 Y122.345 E2.12404
G1 X102.723 Y121.68 E2.16892
G1 X101.736 Y121.001 E2.20877
G1 X100.757 Y120.183 E2.2512
G1 X100.059 Y119.489 E2.28393
G1 X99.128 Y118.375 E2.33222
G1 X98.431 Y117.353 E2.37337
G1 X97.852 Y116.299 E2.41336
G1 X97.094 Y114.411 E2.48103
G1 X96.81 Y113.349 E2.51759
G1 X96.603 Y112.17 E2.55741
G1 X96.559 Y111.756 E2.57126
G1 X96.458 Y111.338 E2.58556
G1 X96.31 Y110.614 E2.61014
G1 X96.141 Y109.342 E2.65282
G1 X96.064 Y108.018 E2.69693
G1 X96.084 Y106.767 E2.73854
G1 X96.155 Y105.925 E2.76664
G1 X96.256 Y105.169 E2.79201
G1 X96.391 Y104.429 E2.81703
G1 X96.636 Y103.445 E2.85076
G1 X96.843 Y102.76 E2.87456
G1 X97.363 Y101.379 E2.92364
G1 X97.826 Y100.386 E2.96008
G1 X97.975 Y100.104 E2.97069
G1 X98.654 Y98.993 E3.014
G1 X99.238 Y98.175 E3.04742
G1 X99.795 Y97.482 E3.077
G1 X100.24 Y96.989 E3.09909
G0 F6000 X100.522 Y97.273
G1 F1200 X101.019 Y96.779 E3.12239
G1 X102.05 Y95.88 E3.16789
G1 X102.672 Y95.424 E3.19354
G1 X104.226 Y94.511 E3.25349
G1 X105.502 Y93.945 E3.29991
G1 X106.511 Y93.606 E3.33532
G1 X107.398 Y93.383 E3.36574
G1 X108.333 Y93.227 E3.39727
G1 X110.301 Y93.128 E3.4628
G1 X111.338 Y93.186 E3.49735
G1 X111.989 Y93.271 E3.51919
G1 X113.041 Y93.483 E3.55488
G1 X113.595 Y93.636 E3.57399
G1 X114.73 Y94.03 E3.61395
G1 X115.437 Y94.339 E3.63962
G1 X116.135 Y94.696 E3.66569
G1 X117.358 Y95.457 E3.7136
G1 X118.488 Y96.33 E3.7611
G1 X119.033 Y96.827 E3.78563
G1 X119.779 Y97.605 E3.82148
G1 X120.3 Y98.227 E3.84846
G1 X120.751 Y98.823 E3.87332
G1 X120.958 Y99.121 E3.88539
G1 X121.675 Y100.308 E3.93151
G1 X121.931 Y100.8 E3.94996
G1 X122.397 Y101.826 E3.98744
G1 X122.693 Y102.615 E4.01547
G1 X123.106 Y104.056 E4.06533
G1 X123.241 Y104.665 E4.08607
G1 X123.394 Y105.562 E4.11634
G1 X123.524 Y106.809 E4.15804
G1 X123.54 Y107.135 E4.16889
G1 X123.515 Y108.766 E4.22315
G1 X123.462 Y109.392 E4.24404
G1 X123.323 Y110.421 E4.27858
G1 X123.256 Y110.789 E4.29102
G1 X123.041 Y111.689 E4.3218
G1 X122.951 Y112.449 E4.34725
G1 X122.594 Y114.046 E4.40168
G1 X122.148 Y115.326 E4.44676
G1 X121.506 Y116.657 E4.49591
G1 X120.713 Y117.913 E4.54532
G1 X119.992 Y118.83 E4.58411
G1 X119.031 Y119.83 E4.63024
G1 X118.329 Y120.446 E4.66131
G1 X117.187 Y121.265 E4.70805
G1 X116.022 Y121.939 E4.75281
G1 X115.139 Y122.347 E4.78516
G1 X114.06 Y122.743 E4.82339
G1 X112.819 Y123.081 E4.86617
G1 X112.267 Y123.189 E4.88488
G1 X110.831 Y123.355 E4.93296
G1 X109.809 Y123.382 E4.96696
G1 X108.81 Y123.332 E5.00023
G1 X108.346 Y123.282 E5.01575
G1 X106.774 Y122.984 E5.06897
G1 X106.24 Y122.837 E5.08739
G1 X104.863 Y122.347 E5.136
G1 X104.064 Y121.981 E5.16523
G1 X102.95 Y121.35 E5.20782
G1 X101.963 Y120.671 E5.24766
G1 X101.039 Y119.899 E5.28771
G1 X100.366 Y119.232 E5.31923
G1 X99.435 Y118.118 E5.36751
G1 X98.782 Y117.16 E5.40607
G1 X98.203 Y116.106 E5.44607
G1 X97.48 Y114.307 E5.51056
G1 X97.204 Y113.28 E5.54593
G1 X97.001 Y112.128 E5.58483
G1 X96.954 Y111.687 E5.59958
G1 X96.85 Y111.258 E5.61427
G1 X96.707 Y110.561 E5.63793
G1 X96.538 Y109.289 E5.68061
G1 X96.464 Y108.024 E5.72276
G1 X96.483 Y106.801 E5.76344
G1 X96.554 Y105.959 E5.79154
G1 X96.65 Y105.241 E5.81564
G1 X96.785 Y104.501 E5.84066
G1 X97.019 Y103.561 E5.87287
G1 X97.226 Y102.876 E5.89667
G1 X97.726 Y101.548 E5.94387
G1 X98.18 Y100.573 E5.97964
G1 X98.329 Y100.291 E5.99025
G1 X98.98 Y99.225 E6.03179
G1 X99.55 Y98.426 E6.06444
G1 X100.107 Y97.733 E6.09401
G1 X100.522 Y97.273 E6.11462
G0 F6000 X100.804 Y97.557
G1 F1200 X101.301 Y97.063 E6.13792
G1 X102.287 Y96.203 E6.18144
G1 X102.909 Y95.747 E6.20709
G1 X104.388 Y94.877 E6.26416
G1 X105.664 Y94.311 E6.31059
G1 X106.609 Y93.994 E6.34374
G1 X107.464 Y93.778 E6.37307
G1 X108.399 Y93.622 E6.4046
G1 X110.279 Y93.527 E6.46721
G1 X111.286 Y93.583 E6.50075
G1 X111.937 Y93.668 E6.52259
G1 X112.935 Y93.869 E6.55645
G1 X113.489 Y94.022 E6.57557
G1 X114.57 Y94.397 E6.61362
G1 X115.277 Y94.706 E6.63929
G1 X115.924 Y95.036 E6.66344
G1 X117.147 Y95.797 E6.71135
G1 X118.218 Y96.626 E6.7564
G1 X118.763 Y97.123 E6.78093
G1 X119.472 Y97.862 E6.81499
G1 X119.993 Y98.484 E6.84198
G1 X120.422 Y99.051 E6.86563
G1 X120.629 Y99.349 E6.87769
G1 X121.32 Y100.493 E6.92215
G1 X121.576 Y100.985 E6.94059
G1 X122.022 Y101.967 E6.97647
G1 X122.318 Y102.756 E7.00449
G1 X122.716 Y104.143 E7.05249
G1 X122.847 Y104.732 E7.07256
G1 X122.996 Y105.604 E7.10198
G1 X123.124 Y106.829 E7.14294
G1 X123.14 Y107.155 E7.1538
G1 X123.116 Y108.732 E7.20626
G1 X123.063 Y109.358 E7.22715
G1 X122.929 Y110.349 E7.26041
G1 X122.862 Y110.717 E7.27286
G1 X122.647 Y111.617 E7.30363
G1 X122.554 Y112.402 E7.32992
G1 X122.216 Y113.914 E7.38145
G1 X121.77 Y115.194 E7.42654
G1 X121.168 Y116.443 E7.47265
G1 X120.375 Y117.699 E7.52206
G1 X119.703 Y118.553 E7.5582
G1 X118.767 Y119.529 E7.60318
G1 X118.065 Y120.145 E7.63424
G1 X116.954 Y120.94 E7.67968
G1 X115.854 Y121.576 E7.72194
G1 X115.001 Y121.971 E7.75321
G1 X113.922 Y122.367 E7.79143
G1 X112.742 Y122.688 E7.83211
G1 X112.19 Y122.796 E7.85081
G1 X110.82 Y122.955 E7.89669
G1 X109.798 Y122.982 E7.93069
G1 X108.853 Y122.934 E7.96216
G1 X108.389 Y122.884 E7.97768
G1 X106.88 Y122.598 E8.02877
G1 X106.346 Y122.451 E8.04719
G1 X105.03 Y121.983 E8.09364
G1 X104.231 Y121.617 E8.12287
G1 X103.176 Y121.02 E8.16319
G1 X102.219 Y120.364 E8.20178
G1 X101.32 Y119.615 E8.2407
G1 X100.673 Y118.975 E8.27097
G1 X99.742 Y117.861 E8.31926
G1 X99.133 Y116.967 E8.35524
G1 X98.554 Y115.913 E8.39523
G1 X97.851 Y114.158 E8.45811
G1 X97.598 Y113.21 E8.49075
G1 X97.399 Y112.086 E8.52871
G1 X97.349 Y111.618 E8.54437
G1 X97.242 Y111.177 E8.55946
G1 X97.104 Y110.508 E8.58218
G1 X96.935 Y109.236 E8.62486
G1 X96.864 Y108.03 E8.66504
G1 X96.882 Y106.835 E8.70479
G1 X96.953 Y105.993 E8.7329
G1 X97.044 Y105.313 E8.75571
G1 X97.179 Y104.573 E8.78073
G1 X97.402 Y103.677 E8.81144
G1 X97.609 Y102.992 E8.83524
G1 X98.089 Y101.717 E8.88056
G1 X98.534 Y100.76 E8.91566
G1 X98.683 Y100.478 E8.92627
G1 X99.321 Y99.434 E8.96696
G1 X99.862 Y98.677 E8.99791
G1 X100.419 Y97.984 E9.02748
G1 X100.804 Y97.557 E9.0466
G0 F6000 X101.086 Y97.841
G1 F1200 X101.583 Y97.347 E9.06991
G1 X102.524 Y96.526 E9.11144
G1 X103.146 Y96.07 E9.1371
G1 X104.55 Y95.243 E9.19129
G1 X105.826 Y94.677 E9.23772
G1 X106.708 Y94.382 E9.26865
G1 X107.53 Y94.173 E9.29686
G1 X108.465 Y94.017 E9.32839
G1 X110.257 Y93.926 E9.38807
G1 X111.234 Y93.98 E9.42061
G1 X111.885 Y94.065 E9.44245
G1 X112.829 Y94.255 E9.47448
G1 X113.383 Y94.408 E9.49359
G1 X114.41 Y94.764 E9.52975
G1 X115.096 Y95.063 E9.55463
G1 X115.713 Y95.376 E9.57765
G1 X116.902 Y96.114 E9.62419
G1 X117.948 Y96.922 E9.66815
G1 X118.493 Y97.419 E9.69268
G1 X119.165 Y98.119 E9.72496
G1 X119.686 Y98.741 E9.75194
G1 X120.093 Y99.279 E9.77438
G1 X120.3 Y99.577 E9.78645
G1 X120.965 Y100.678 E9.82923
G1 X121.221 Y101.17 E9.84768
G1 X121.647 Y102.108 E9.88194
G1 X121.943 Y102.897 E9.90997
G1 X122.326 Y104.23 E9.9561
G1 X122.453 Y104.8 E9.97552
G1 X122.598 Y105.646 E10.00407
G1 X122.724 Y106.849 E10.0443
G1 X122.74 Y107.175 E10.05516
G1 X122.717 Y108.698 E10.10582
G1 X122.664 Y109.324 E10.12671
G1 X122.535 Y110.277 E10.1587
G1 X122.468 Y110.645 E10.17114
G1 X122.253 Y111.545 E10.20192
G1 X122.157 Y112.355 E10.22905
G1 X121.838 Y113.782 E10.27768
G1 X121.392 Y115.062 E10.32276
G1 X120.83 Y116.229 E10.36584
G1 X120.037 Y117.485 E10.41525
G1 X119.414 Y118.276 E10.44874
G1 X118.503 Y119.228 E10.49256
G1 X117.801 Y119.844 E10.52363
G1 X116.722 Y120.614 E10.56772
G1 X115.686 Y121.213 E10.60752
G1 X114.863 Y121.595 E10.6377
G1 X113.784 Y121.991 E10.67592
G1 X112.665 Y122.295 E10.71449
G1 X112.113 Y122.403 E10.7332
G1 X110.809 Y122.555 E10.77686
G1 X109.818 Y122.582 E10.80984
G1 X108.896 Y122.536 E10.84054
G1 X108.432 Y122.486 E10.85606
G1 X106.986 Y122.212 E10.90501
G1 X106.452 Y122.065 E10.92343
G1 X105.197 Y121.619 E10.96773
G1 X104.398 Y121.253 E10.99696
G1 X103.402 Y120.69 E11.03502
G1 X102.475 Y120.056 E11.07237
G1 X101.601 Y119.33 E11.11016
G1 X100.98 Y118.718 E11.13916
G1 X100.049 Y117.604 E11.18745
G1 X99.484 Y116.774 E11.22084
G1 X98.905 Y115.72 E11.26084
G1 X98.237 Y114.054 E11.32054
G1 X97.992 Y113.14 E11.35201
G1 X97.797 Y112.043 E11.38907
G1 X97.744 Y111.548 E11.40563
G1 X97.634 Y111.096 E11.4211
G1 X97.501 Y110.455 E11.44287
G1 X97.332 Y109.183 E11.48555
G1 X97.264 Y108.036 E11.52377
G1 X97.281 Y106.868 E11.56262
G1 X97.35 Y106.046 E11.59006
G1 X97.438 Y105.385 E11.61224
G1 X97.573 Y104.645 E11.63726
G1 X97.785 Y103.793 E11.66646
G1 X97.992 Y103.108 E11.69026
G1 X98.463 Y101.858 E11.73469
G1 X98.888 Y100.947 E11.76812
G1 X99.037 Y100.665 E11.77873
G1 X99.647 Y99.666 E11.81766
G1 X100.174 Y98.928 E11.84782
G1 X100.731 Y98.235 E11.87739
G1 X101.086 Y97.841 E11.89503
G0 F6000 X101.368 Y98.125
G1 F1200 X101.865 Y97.631 E11.91834
G1 X102.761 Y96.849 E11.9579
G1 X103.383 Y96.393 E11.98355
G1 X104.712 Y95.609 E12.03487
G1 X105.988 Y95.043 E12.0813
G1 X106.807 Y94.77 E12.11001
G1 X107.596 Y94.568 E12.1371
G1 X108.531 Y94.412 E12.16863
G1 X110.235 Y94.325 E12.22538
G1 X111.182 Y94.377 E12.25692
G1 X111.833 Y94.462 E12.27876
G1 X112.723 Y94.641 E12.30895
G1 X113.277 Y94.794 E12.32807
G1 X114.25 Y95.131 E12.36231
G1 X114.936 Y95.43 E12.3872
G1 X115.502 Y95.716 E12.4083
G1 X116.691 Y96.454 E12.45484
G1 X117.678 Y97.218 E12.49635
G1 X118.223 Y97.715 E12.52089
G1 X118.858 Y98.376 E12.55137
G1 X119.379 Y98.998 E12.57836
G1 X119.764 Y99.507 E12.59959
G1 X119.971 Y99.805 E12.61165
G1 X120.61 Y100.863 E12.65276
G1 X120.866 Y101.355 E12.67121
G1 X121.272 Y102.249 E12.70387
G1 X121.568 Y103.038 E12.7319
G1 X121.936 Y104.317 E12.77616
G1 X122.059 Y104.868 E12.79494
G1 X122.2 Y105.688 E12.82261
G1 X122.324 Y106.869 E12.86211
G1 X122.34 Y107.195 E12.87296
G1 X122.318 Y108.664 E12.92183
G1 X122.265 Y109.29 E12.94272
G1 X122.141 Y110.205 E12.97343
G1 X122.074 Y110.573 E12.98588
G1 X121.859 Y111.473 E13.01665
G1 X121.76 Y112.308 E13.04462
G1 X121.46 Y113.651 E13.09039
G1 X121.031 Y114.889 E13.13397
G1 X120.492 Y116.015 E13.17549
G1 X119.699 Y117.271 E13.22489
G1 X119.125 Y118 E13.25575
G1 X118.239 Y118.927 E13.2984
G1 X117.537 Y119.543 E13.32946
G1 X116.522 Y120.268 E13.37095
G1 X115.517 Y120.85 E13.40958
G1 X114.725 Y121.219 E13.43864
G1 X113.646 Y121.615 E13.47687
G1 X112.588 Y121.902 E13.51333
G1 X112.036 Y122.01 E13.53204
G1 X110.798 Y122.155 E13.57349
G1 X109.838 Y122.182 E13.60544
G1 X108.939 Y122.138 E13.63537
G1 X108.475 Y122.088 E13.65089
G1 X107.092 Y121.826 E13.69771
G1 X106.558 Y121.679 E13.71613
G1 X105.364 Y121.255 E13.75828
G1 X104.565 Y120.889 E13.78751
G1 X103.627 Y120.36 E13.82332
G1 X102.73 Y119.748 E13.85944
G1 X101.881 Y119.045 E13.8961
G1 X101.287 Y118.461 E13.92381
G1 X100.356 Y117.347 E13.97209
G1 X99.835 Y116.581 E14.00291
G1 X99.256 Y115.527 E14.0429
G1 X98.623 Y113.95 E14.09942
G1 X98.386 Y113.07 E14.12973
G1 X98.195 Y112 E14.16589
G1 X98.139 Y111.478 E14.18335
G1 X98.026 Y111.014 E14.19923
G1 X97.898 Y110.402 E14.22003
G1 X97.729 Y109.13 E14.26271
G1 X97.664 Y108.042 E14.29896
G1 X97.68 Y106.901 E14.33691
G1 X97.749 Y106.079 E14.36435
G1 X97.832 Y105.457 E14.38522
G1 X97.967 Y104.717 E14.41024
G1 X98.168 Y103.909 E14.43793
G1 X98.375 Y103.224 E14.46173
G1 X98.826 Y102.027 E14.50427
G1 X99.242 Y101.134 E14.53704
G1 X99.391 Y100.852 E14.54765
G1 X99.988 Y99.875 E14.58573
G1 X100.486 Y99.179 E14.61419
G1 X101.043 Y98.486 E14.64377
G1 X101.368 Y98.125 E14.65992
G0 F6000 X101.65 Y98.409
G1 F1200 X102.147 Y97.915 E14.68323
G1 X102.998 Y97.172 E14.7208
G1 X103.62 Y96.716 E14.74646
G1 X104.875 Y95.974 E14.79495
G1 X106.115 Y95.422 E14.84009
G1 X106.907 Y95.157 E14.86787
G1 X107.662 Y94.963 E14.8938
G1 X108.597 Y94.807 E14.92532
G1 X110.213 Y94.724 E14.97914
G1 X111.13 Y94.774 E15.00969
G1 X111.781 Y94.859 E15.03152
G1 X112.617 Y95.027 E15.05989
G1 X113.171 Y95.18 E15.079
G1 X114.09 Y95.498 E15.11135
G1 X114.776 Y95.797 E15.13624
G1 X115.291 Y96.056 E15.15541
G1 X116.446 Y96.771 E15.20059
G1 X117.408 Y97.514 E15.24102
G1 X117.953 Y98.011 E15.26555
G1 X118.551 Y98.633 E15.29425
G1 X119.072 Y99.255 E15.32123
G1 X119.435 Y99.735 E15.34125
G1 X119.642 Y100.033 E15.35332
G1 X120.255 Y101.048 E15.39276
G1 X120.511 Y101.54 E15.4112
G1 X120.897 Y102.39 E15.44225
G1 X121.193 Y103.179 E15.47028
G1 X121.546 Y104.404 E15.51268
G1 X121.665 Y104.936 E15.53081
G1 X121.802 Y105.73 E15.55761
G1 X121.924 Y106.889 E15.59637
G1 X121.94 Y107.215 E15.60723
G1 X121.919 Y108.63 E15.6543
G1 X121.866 Y109.256 E15.67519
G1 X121.747 Y110.133 E15.70463
G1 X121.68 Y110.501 E15.71707
G1 X121.465 Y111.401 E15.74785
G1 X121.363 Y112.261 E15.77665
G1 X121.082 Y113.521 E15.81959
G1 X120.67 Y114.717 E15.86166
G1 X120.153 Y115.802 E15.90164
G1 X119.384 Y117.024 E15.94966
G1 X118.835 Y117.724 E15.97925
G1 X117.975 Y118.626 E16.0207
G1 X117.273 Y119.242 E16.05176
G1 X116.321 Y119.922 E16.09067
