;FLAVOR:Marlin
;TIME:2625
;Filament used: 1.57085m
;Layer height: 0.2
;MINX:85.749
;MINY:85.751
;MINZ:0.2
;MAXX:134.251
;MAXY:134.249
;MAXZ:30.8
;TARGET_MACHINE.NAME:Creality Ender-3 Pro
;Generated with Cura_SteamEngine 5.6.0
M82 ;absolute extrusion mode
; Ender 3 Custom Start G-code
G92 E0 ; Reset Extruder
G28 ; Home all axes
G1 Z5.0 F3000 ; Move Z Axis up a bit during heating to not damage bed
M104 S175 ; Start heating up the nozzle most of the way
M190 S60 ; Start heating the bed, wait until target temperature reached
M109 S200 ; Finish heating the nozzle
G1 Z2.0 F3000 ; Move Z Axis up little to prevent scratching of Heat Bed
G1 X0.1 Y20 Z0.3 F5000.0 ; Move to start position
G1 X0.1 Y200.0 Z0.3 F1500.0 E15 ; Draw the first line
G1 X0.4 Y200.0 Z0.3 F5000.0 ; Move to side a little
G1 X0.4 Y20 Z0.3 F1500.0 E30 ; Draw the second line
G92 E0 ; Reset Extruder
G1 Z2.0 F3000 ; Move Z Axis up little to prevent scratching of Heat Bed
G1 X5 Y20 Z0.3 F5000.0 ; Move over to prevent blob squish
G92 E0
G92 E0
G1 F1500 E-6.5
;LAYER_COUNT:154
;LAYER:0
M107
G0 F6000 X93.347 Y92.368 Z0.2
;TYPE:SKIRT
G1 F1500 E0
G1 F1200 X94.673 Y91.192 E0.05895
G1 X95.542 Y90.516 E0.09557
G1 X97.291 Y89.329 E0.16587
G1 X98.265 Y88.761 E0.20337
G1 X99.926 Y87.938 E0.26503
G1 X101.584 Y87.249 E0.32474
G1 X103.008 Y86.77 E0.37471
G1 X104.419 Y86.394 E0.42328
G1 X106.053 Y86.066 E0.47871
G1 X107.57 Y85.864 E0.52961
G1 X109.443 Y85.751 E0.59202
G1 X110.557 Y85.751 E0.62908
G1 X112.486 Y85.868 E0.69335
G1 X113.913 Y86.058 E0.74123
G1 X115.727 Y86.431 E0.80283
G1 X117.005 Y86.778 E0.84688
G1 X118.867 Y87.415 E0.91233
G1 X119.976 Y87.883 E0.95236
G1 X121.499 Y88.642 E1.00896
G1 X123.156 Y89.62 E1.07296
G1 X124.195 Y90.329 E1.11479
G1 X125.536 Y91.374 E1.17134
G1 X126.799 Y92.502 E1.22766
G1 X127.919 Y93.648 E1.28096
G1 X128.852 Y94.735 E1.3286
G1 X129.939 Y96.191 E1.38904
G1 X130.841 Y97.584 E1.44423
G1 X131.515 Y98.795 E1.49033
G1 X132.248 Y100.344 E1.54733
G1 X132.898 Y101.996 E1.60637
G1 X133.261 Y103.118 E1.64559
G1 X133.727 Y104.952 E1.70853
G1 X133.972 Y106.295 E1.75394
G1 X134.197 Y108.246 E1.81926
G1 X134.251 Y109.346 E1.85589
G1 X134.22 Y111.286 E1.92042
G1 X134.065 Y113.062 E1.97972
G1 X133.894 Y114.193 E2.01776
G1 X133.569 Y115.704 E2.06917
G1 X132.979 Y117.749 E2.13996
G1 X132.594 Y118.809 E2.17747
G1 X131.759 Y120.703 E2.24631
G1 X131.109 Y121.935 E2.29264
G1 X130.276 Y123.299 E2.3458
G1 X129.246 Y124.754 E2.40509
G1 X128.392 Y125.806 E2.45016
G1 X127.315 Y126.978 E2.5031
G1 X125.973 Y128.253 E2.56467
G1 X125.045 Y129.025 E2.60482
G1 X123.379 Y130.229 E2.67318
G1 X122.447 Y130.815 E2.7098
G1 X120.602 Y131.814 E2.77958
G1 X119.58 Y132.282 E2.81697
G1 X117.698 Y132.998 E2.88394
G1 X116.495 Y133.366 E2.92578
G1 X114.544 Y133.826 E2.99245
G1 X113.444 Y134.009 E3.02954
G1 X111.301 Y134.213 E3.10114
G1 X109.746 Y134.249 E3.15287
G1 X108.647 Y134.212 E3.18945
G1 X106.543 Y134.007 E3.25976
G1 X105.456 Y133.826 E3.29641
G1 X103.742 Y133.422 E3.35498
G1 X101.873 Y132.85 E3.41999
G1 X100.817 Y132.447 E3.45758
G1 X99.113 Y131.661 E3.52
G1 X97.542 Y130.808 E3.57945
G1 X96.609 Y130.222 E3.6161
G1 X95.01 Y129.057 E3.6819
G1 X93.719 Y127.973 E3.73797
G1 X92.793 Y127.087 E3.78059
G1 X91.638 Y125.835 E3.83725
G1 X90.471 Y124.392 E3.89898
G1 X89.792 Y123.422 E3.93836
G1 X88.801 Y121.779 E4.00217
G1 X88.129 Y120.478 E4.05088
G1 X87.465 Y118.959 E4.10601
G1 X86.865 Y117.277 E4.16541
G1 X86.512 Y116.046 E4.208
G1 X86.096 Y114.086 E4.27465
G1 X85.877 Y112.538 E4.32665
G1 X85.786 Y111.442 E4.36322
G1 X85.749 Y109.334 E4.43335
G1 X85.804 Y108.234 E4.46998
G1 X86.052 Y106.207 E4.5379
G1 X86.359 Y104.556 E4.59375
G1 X86.631 Y103.488 E4.63041
G1 X87.222 Y101.684 E4.69355
G1 X87.888 Y100.027 E4.75295
G1 X88.37 Y99.02 E4.79008
G1 X89.369 Y97.252 E4.85762
G1 X90.25 Y95.914 E4.9109
G1 X91.088 Y94.803 E4.95719
G1 X92.132 Y93.595 E5.01029
G1 X93.347 Y92.368 E5.06772
G0 F6000 X93.613 Y92.667
G1 F1200 X94.919 Y91.508 E5.1258
G1 X95.788 Y90.832 E5.16242
G1 X97.493 Y89.675 E5.23095
G1 X98.467 Y89.107 E5.26845
G1 X100.104 Y88.296 E5.32922
G1 X101.712 Y87.628 E5.38713
G1 X103.111 Y87.157 E5.43623
G1 X104.522 Y86.781 E5.48479
G1 X106.106 Y86.463 E5.53853
G1 X107.623 Y86.261 E5.58943
G1 X109.443 Y86.151 E5.65007
G1 X110.557 Y86.151 E5.68713
G1 X112.433 Y86.265 E5.74964
G1 X113.86 Y86.455 E5.79752
G1 X115.622 Y86.817 E5.85735
G1 X116.876 Y87.157 E5.90056
G1 X118.711 Y87.784 E5.96506
G1 X119.82 Y88.252 E6.00509
G1 X121.32 Y89 E6.06084
G1 X122.931 Y89.951 E6.12306
G1 X123.949 Y90.645 E6.16404
G1 X125.29 Y91.69 E6.22059
G1 X126.513 Y92.782 E6.27512
G1 X127.615 Y93.909 E6.32755
G1 X128.548 Y94.996 E6.37519
G1 X129.618 Y96.43 E6.4347
G1 X130.491 Y97.779 E6.48814
G1 X131.165 Y98.99 E6.53424
G1 X131.876 Y100.491 E6.58948
G1 X132.517 Y102.119 E6.64767
G1 X132.88 Y103.241 E6.6869
G1 X133.333 Y105.024 E6.74808
G1 X133.578 Y106.367 E6.79349
G1 X133.797 Y108.266 E6.85707
G1 X133.851 Y109.366 E6.8937
G1 X133.821 Y111.251 E6.9564
G1 X133.669 Y113.002 E7.01486
G1 X133.498 Y114.133 E7.0529
G1 X133.178 Y115.62 E7.10349
G1 X132.603 Y117.612 E7.17245
G1 X132.218 Y118.672 E7.20996
G1 X131.405 Y120.516 E7.27699
G1 X130.755 Y121.748 E7.32332
G1 X129.935 Y123.09 E7.37563
G1 X128.935 Y124.502 E7.43318
G1 X128.097 Y125.535 E7.47742
G1 X127.02 Y126.707 E7.53036
G1 X125.717 Y127.945 E7.59014
G1 X124.789 Y128.717 E7.63029
G1 X123.166 Y129.89 E7.69689
G1 X122.234 Y130.476 E7.73351
G1 X120.435 Y131.45 E7.80155
G1 X119.413 Y131.918 E7.83894
G1 X117.581 Y132.615 E7.90413
G1 X116.378 Y132.983 E7.94597
G1 X114.478 Y133.431 E8.0109
G1 X113.378 Y133.614 E8.04799
G1 X111.292 Y133.813 E8.11768
G1 X109.759 Y133.849 E8.16869
G1 X108.66 Y133.812 E8.20526
G1 X106.609 Y133.612 E8.2738
G1 X105.522 Y133.431 E8.31045
G1 X103.834 Y133.033 E8.36813
G1 X102.016 Y132.476 E8.43137
G1 X100.96 Y132.073 E8.46897
G1 X99.281 Y131.298 E8.53047
G1 X97.755 Y130.469 E8.58823
G1 X96.822 Y129.883 E8.62488
G1 X95.267 Y128.751 E8.68885
G1 X93.996 Y127.684 E8.74405
G1 X93.07 Y126.798 E8.78667
G1 X91.949 Y125.583 E8.84166
G1 X90.782 Y124.14 E8.90338
G1 X90.135 Y123.215 E8.94093
G1 X89.144 Y121.572 E9.00474
G1 X88.496 Y120.318 E9.05169
G1 X87.832 Y118.799 E9.10683
G1 X87.25 Y117.167 E9.16446
G1 X86.897 Y115.936 E9.20705
G1 X86.492 Y114.03 E9.27186
G1 X86.276 Y112.505 E9.32309
G1 X86.185 Y111.409 E9.35967
G1 X86.149 Y109.354 E9.42803
G1 X86.204 Y108.254 E9.46466
G1 X86.445 Y106.28 E9.5308
G1 X86.747 Y104.655 E9.58578
G1 X87.019 Y103.587 E9.62243
G1 X87.593 Y101.833 E9.68381
G1 X88.249 Y100.2 E9.74235
G1 X88.731 Y99.193 E9.77948
G1 X89.703 Y97.472 E9.84522
G1 X90.569 Y96.155 E9.89764
G1 X91.391 Y95.065 E9.94305
G1 X92.435 Y93.857 E9.99615
G1 X93.613 Y92.667 E10.05185
G0 F6000 X93.897 Y92.949
G1 F1200 X95.165 Y91.824 E10.10823
G1 X96.034 Y91.148 E10.14484
G1 X97.695 Y90.021 E10.21161
G1 X98.669 Y89.453 E10.24911
G1 X100.282 Y88.654 E10.30898
G1 X101.84 Y88.007 E10.36509
G1 X103.214 Y87.544 E10.41331
G1 X104.625 Y87.168 E10.46188
G1 X106.159 Y86.86 E10.51392
G1 X107.676 Y86.658 E10.56482
G1 X109.443 Y86.551 E10.6237
G1 X110.557 Y86.551 E10.66075
G1 X112.38 Y86.662 E10.7215
G1 X113.807 Y86.852 E10.76938
G1 X115.517 Y87.203 E10.82744
G1 X116.771 Y87.543 E10.87065
G1 X118.555 Y88.153 E10.93336
G1 X119.664 Y88.621 E10.9734
G1 X121.141 Y89.358 E11.0283
G1 X122.706 Y90.282 E11.08874
G1 X123.703 Y90.961 E11.12886
G1 X125.044 Y92.006 E11.18541
G1 X126.227 Y93.062 E11.23815
G1 X127.311 Y94.17 E11.28971
G1 X128.244 Y95.257 E11.33735
G1 X129.282 Y96.647 E11.39505
G1 X130.141 Y97.974 E11.44763
G1 X130.815 Y99.185 E11.49372
G1 X131.514 Y100.662 E11.54807
G1 X132.136 Y102.242 E11.60455
G1 X132.499 Y103.364 E11.64377
G1 X132.939 Y105.096 E11.70321
G1 X133.184 Y106.439 E11.74861
G1 X133.397 Y108.286 E11.81045
G1 X133.451 Y109.386 E11.84708
G1 X133.421 Y111.245 E11.90892
G1 X133.273 Y112.942 E11.96558
G1 X133.102 Y114.073 E12.00362
G1 X132.787 Y115.536 E12.0534
G1 X132.227 Y117.475 E12.12053
G1 X131.842 Y118.535 E12.15803
G1 X131.051 Y120.329 E12.22325
G1 X130.401 Y121.561 E12.26958
G1 X129.594 Y122.881 E12.32103
G1 X128.624 Y124.25 E12.37684
G1 X127.802 Y125.264 E12.42025
G1 X126.725 Y126.436 E12.47319
G1 X125.461 Y127.637 E12.53119
G1 X124.533 Y128.409 E12.57133
G1 X122.953 Y129.551 E12.63618
G1 X122.021 Y130.137 E12.67279
G1 X120.268 Y131.086 E12.73909
G1 X119.246 Y131.554 E12.77648
G1 X117.464 Y132.232 E12.83989
G1 X116.261 Y132.6 E12.88174
G1 X114.412 Y133.036 E12.94492
G1 X113.312 Y133.219 E12.98201
G1 X111.282 Y133.413 E13.04984
G1 X109.772 Y133.449 E13.10007
G1 X108.673 Y133.412 E13.13665
G1 X106.675 Y133.217 E13.20342
G1 X105.588 Y133.036 E13.24007
G1 X103.951 Y132.65 E13.29601
G1 X102.159 Y132.102 E13.35833
G1 X101.103 Y131.699 E13.39593
G1 X99.472 Y130.947 E13.45566
G1 X97.968 Y130.13 E13.51259
G1 X97.035 Y129.544 E13.54923
G1 X95.524 Y128.444 E13.6114
G1 X94.273 Y127.395 E13.6657
G1 X93.347 Y126.509 E13.70832
G1 X92.243 Y125.312 E13.76248
G1 X91.11 Y123.91 E13.82244
G1 X90.478 Y123.008 E13.85907
G1 X89.487 Y121.365 E13.92289
G1 X88.863 Y120.158 E13.96808
G1 X88.199 Y118.639 E14.02322
G1 X87.635 Y117.057 E14.07908
G1 X87.282 Y115.826 E14.12167
G1 X86.888 Y113.974 E14.18465
G1 X86.675 Y112.472 E14.23511
G1 X86.584 Y111.376 E14.27168
G1 X86.549 Y109.374 E14.33828
G1 X86.604 Y108.274 E14.37491
G1 X86.842 Y106.329 E14.44009
G1 X87.135 Y104.754 E14.49337
G1 X87.407 Y103.686 E14.53003
G1 X87.973 Y101.958 E14.5905
G1 X88.61 Y100.373 E14.64732
G1 X89.092 Y99.366 E14.68445
G1 X90.037 Y97.692 E14.74839
G1 X90.888 Y96.396 E14.79996
G1 X91.694 Y95.327 E14.84448
G1 X92.738 Y94.119 E14.89759
G1 X93.897 Y92.949 E14.95236
G0 F6000 X94.181 Y93.231
G1 F1200 X95.411 Y92.14 E15.00705
G1 X96.28 Y91.464 E15.04367
G1 X97.897 Y90.367 E15.10866
G1 X98.871 Y89.799 E15.14616
G1 X100.46 Y89.012 E15.20513
G1 X101.968 Y88.386 E15.25944
G1 X103.317 Y87.931 E15.30679
G1 X104.728 Y87.555 E15.35536
G1 X106.212 Y87.257 E15.4057
G1 X107.729 Y87.055 E15.4566
G1 X109.443 Y86.951 E15.51372
G1 X110.557 Y86.951 E15.55077
G1 X112.327 Y87.059 E15.60975
G1 X113.754 Y87.249 E15.65763
G1 X115.412 Y87.589 E15.71392
G1 X116.666 Y87.929 E15.75714
G1 X118.399 Y88.522 E15.81806
G1 X119.508 Y88.99 E15.85809
G1 X120.938 Y89.703 E15.91124
G1 X122.481 Y90.613 E15.97082
G1 X123.457 Y91.277 E16.01008
G1 X124.798 Y92.322 E16.06663
G1 X125.941 Y93.342 E16.11758
G1 X127.007 Y94.431 E16.16826
G1 X127.94 Y95.518 E16.21591
G1 X128.946 Y96.865 E16.27183
G1 X129.791 Y98.169 E16.32351
G1 X130.465 Y99.38 E16.3696
G1 X131.142 Y100.809 E16.4222
G1 X131.755 Y102.365 E16.47782
G1 X132.118 Y103.487 E16.51704
G1 X132.545 Y105.168 E16.57473
G1 X132.79 Y106.511 E16.62014
G1 X132.997 Y108.306 E16.68023
G1 X133.051 Y109.406 E16.71686
G1 X133.022 Y111.21 E16.77687
G1 X132.877 Y112.882 E16.83269
G1 X132.706 Y114.013 E16.87074
G1 X132.396 Y115.452 E16.9197
G1 X131.851 Y117.338 E16.98499
G1 X131.466 Y118.398 E17.0225
G1 X130.697 Y120.142 E17.08589
G1 X130.047 Y121.374 E17.13222
G1 X129.267 Y122.65 E17.18197
G1 X128.313 Y123.998 E17.23689
G1 X127.507 Y124.993 E17.27948
G1 X126.43 Y126.165 E17.33242
G1 X125.205 Y127.329 E17.38863
G1 X124.277 Y128.101 E17.42878
G1 X122.74 Y129.212 E17.49185
G1 X121.808 Y129.798 E17.52847
G1 X120.101 Y130.722 E17.59303
G1 X119.079 Y131.19 E17.63041
G1 X117.347 Y131.849 E17.69205
G1 X116.144 Y132.217 E17.73389
G1 X114.346 Y132.641 E17.79533
G1 X113.246 Y132.824 E17.83242
G1 X111.272 Y133.013 E17.89838
G1 X109.785 Y133.049 E17.94785
G1 X108.686 Y133.012 E17.98443
G1 X106.741 Y132.822 E18.04942
G1 X105.654 Y132.641 E18.08608
G1 X104.043 Y132.261 E18.14113
G1 X102.302 Y131.728 E18.20169
G1 X101.246 Y131.325 E18.23928
G1 X99.64 Y130.584 E18.29811
G1 X98.181 Y129.791 E18.35334
G1 X97.248 Y129.205 E18.38998
G1 X95.76 Y128.121 E18.45121
G1 X94.55 Y127.106 E18.50374
G1 X93.624 Y126.22 E18.54637
G1 X92.554 Y125.06 E18.59886
G1 X91.438 Y123.68 E18.65789
G1 X90.806 Y122.778 E18.69452
G1 X89.842 Y121.181 E18.75656
G1 X89.23 Y119.998 E18.80086
G1 X88.566 Y118.479 E18.856
G1 X88.02 Y116.947 E18.9101
G1 X87.667 Y115.716 E18.95269
G1 X87.284 Y113.918 E19.01383
G1 X87.074 Y112.439 E19.06352
G1 X86.983 Y111.343 E19.1001
G1 X86.949 Y109.394 E19.16493
G1 X87.004 Y108.294 E19.20156
G1 X87.235 Y106.402 E19.26496
G1 X87.523 Y104.853 E19.31736
G1 X87.795 Y103.785 E19.35402
G1 X88.353 Y102.083 E19.41359
G1 X88.971 Y100.546 E19.46869
G1 X89.453 Y99.539 E19.50582
G1 X90.371 Y97.911 E19.56798
G1 X91.207 Y96.637 E19.61866
G1 X91.997 Y95.589 E19.66232
G1 X93.041 Y94.381 E19.71542
G1 X94.181 Y93.231 E19.76928
G0 F6000 X94.447 Y93.53
G1 F1200 X95.657 Y92.456 E19.82309
G1 X96.526 Y91.78 E19.85971
G1 X98.099 Y90.713 E19.92293
G1 X99.073 Y90.145 E19.96043
G1 X100.637 Y89.371 E20.01847
G1 X102.096 Y88.765 E20.07101
G1 X103.42 Y88.318 E20.11749
G1 X104.831 Y87.942 E20.16606
G1 X106.265 Y87.654 E20.21471
G1 X107.782 Y87.452 E20.26561
G1 X109.443 Y87.351 E20.32095
G1 X110.557 Y87.351 E20.35801
G1 X112.274 Y87.456 E20.41522
G1 X113.701 Y87.646 E20.4631
G1 X115.331 Y87.981 E20.51845
G1 X116.537 Y88.308 E20.56001
G1 X118.243 Y88.891 E20.61997
G1 X119.352 Y89.359 E20.66001
G1 X120.76 Y90.061 E20.71234
G1 X122.256 Y90.944 E20.77011
G1 X123.211 Y91.593 E20.80852
G1 X124.552 Y92.638 E20.86506
G1 X125.655 Y93.622 E20.91423
G1 X126.703 Y94.692 E20.96404
G1 X127.636 Y95.779 E21.01169
G1 X128.625 Y97.104 E21.06668
G1 X129.441 Y98.364 E21.11661
G1 X130.115 Y99.575 E21.1627
G1 X130.78 Y100.98 E21.2144
G1 X131.374 Y102.488 E21.26831
G1 X131.737 Y103.61 E21.30753
G1 X132.151 Y105.24 E21.36347
G1 X132.396 Y106.583 E21.40887
G1 X132.597 Y108.326 E21.46723
G1 X132.651 Y109.426 E21.50386
G1 X132.622 Y111.203 E21.56297
G1 X132.481 Y112.822 E21.61702
G1 X132.31 Y113.953 E21.65507
G1 X132.005 Y115.368 E21.70321
G1 X131.475 Y117.201 E21.76668
G1 X131.09 Y118.261 E21.80419
G1 X130.343 Y119.955 E21.86576
G1 X129.693 Y121.187 E21.91209
G1 X128.926 Y122.441 E21.96098
G1 X128.002 Y123.746 E22.01417
G1 X127.212 Y124.722 E22.05593
G1 X126.135 Y125.894 E22.10887
G1 X124.949 Y127.021 E22.16329
G1 X124.021 Y127.793 E22.20344
G1 X122.527 Y128.873 E22.26475
G1 X121.595 Y129.459 E22.30137
G1 X119.934 Y130.358 E22.36418
G1 X118.912 Y130.826 E22.40157
G1 X117.23 Y131.466 E22.46143
G1 X116.027 Y131.834 E22.50327
G1 X114.28 Y132.246 E22.56297
G1 X113.18 Y132.429 E22.60006
G1 X111.262 Y132.613 E22.66414
G1 X109.798 Y132.649 E22.71285
G1 X108.699 Y132.612 E22.74943
G1 X106.807 Y132.427 E22.81265
G1 X105.72 Y132.246 E22.8493
G1 X104.135 Y131.872 E22.90347
G1 X102.445 Y131.354 E22.96226
G1 X101.389 Y130.951 E22.99985
G1 X99.831 Y130.233 E23.05691
G1 X98.394 Y129.452 E23.11131
G1 X97.461 Y128.866 E23.14795
G1 X95.996 Y127.798 E23.20825
G1 X94.827 Y126.817 E23.25901
G1 X93.901 Y125.931 E23.30164
G1 X92.848 Y124.789 E23.3533
G1 X91.766 Y123.45 E23.41056
G1 X91.134 Y122.548 E23.44719
G1 X90.197 Y120.997 E23.50746
G1 X89.597 Y119.838 E23.55087
G1 X88.933 Y118.319 E23.60601
G1 X88.405 Y116.837 E23.65833
G1 X88.052 Y115.606 E23.70093
G1 X87.68 Y113.862 E23.76024
G1 X87.473 Y112.406 E23.80915
G1 X87.382 Y111.31 E23.84573
G1 X87.349 Y109.414 E23.9088
G1 X87.404 Y108.314 E23.94543
G1 X87.632 Y106.451 E24.00786
G1 X87.911 Y104.952 E24.05857
G1 X88.183 Y103.884 E24.09523
G1 X88.724 Y102.232 E24.15304
G1 X89.332 Y100.719 E24.20728
G1 X89.814 Y99.712 E24.24441
G1 X90.719 Y98.108 E24.30567
G1 X91.526 Y96.878 E24.35459
G1 X92.3 Y95.851 E24.39737
G1 X93.344 Y94.643 E24.45047
G1 X94.447 Y93.53 E24.50259
G0 F6000 X94.731 Y93.812
G1 F1200 X95.903 Y92.772 E24.5547
G1 X96.772 Y92.096 E24.59132
G1 X98.301 Y91.059 E24.65277
G1 X99.275 Y90.491 E24.69027
G1 X100.814 Y89.73 E24.74738
G1 X102.224 Y89.144 E24.79816
G1 X103.523 Y88.705 E24.84377
G1 X104.934 Y88.329 E24.89233
G1 X106.318 Y88.051 E24.93929
G1 X107.835 Y87.849 E24.99019
G1 X109.443 Y87.751 E25.04377
G1 X110.557 Y87.751 E25.08082
G1 X112.221 Y87.853 E25.13627
G1 X113.648 Y88.043 E25.18415
G1 X115.226 Y88.367 E25.23773
G1 X116.432 Y88.694 E25.27929
G1 X118.087 Y89.26 E25.33746
G1 X119.196 Y89.728 E25.3775
G1 X120.581 Y90.419 E25.42898
G1 X122.031 Y91.275 E25.48498
G1 X122.965 Y91.909 E25.52253
G1 X124.306 Y92.954 E25.57908
